X:14002
T:Ned Of The Hill
T:Eamonn a Chnuic
R:Air
C:Trad.
O:Ireland
M:3/4
L:1/8
Q:1/4=120
K:G
BA|"Em"G4 EF|"Em"G4 GA|"Em"B2 g3 f|"Em"e4 ge|"G"d3 B A2|"Em"G3 A B2|"C"c3 BAG|"Em"E4 BA|
"Em"G4 EF|"Em"G4 GA|"Em"B2 g3 f|"Em"e4 ge|"G"d3 B A2|"Em"G3 A B2|"D"A3 GGF|"G"G4 d2|
"C"e c3 g2|"G"d4 d2|"Em"e2 f3 e|"G"d4 de|"G"d3 B A2|"Em"G3 A B2|"C"c3 BAG|"Em"E4 BA|
"Em"G3 E F2|"Em"G4 GA|"Em"B2 g3 f|"Em"e4 ge|"G"d3 e dB|"Am"A2 G2 AB|"D"A3 G GF|"G"G4|]

